Newaita-dark/mimetypes/48/application-x-arj.svg

<svg height="48pt" viewBox="0 0 48 48" width="48pt" xmlns="http://www.w3.org/2000/svg" xmlns:xlink="http://www.w3.org/1999/xlink"><linearGradient id="a" gradientUnits="userSpaceOnUse" x1="23.81478" x2="23.81478" y1="42.0509045" y2="44.03547050005"><stop offset="0" stop-opacity=".27451"/><stop offset="1" stop-opacity="0"/></linearGradient><linearGradient id="b"><stop offset="0" stop-opacity=".313725"/><stop offset=".222222" stop-opacity=".27451"/><stop offset="1" stop-opacity="0"/></linearGradient><radialGradient id="c" cx="450.908936" cy="189.579361" gradientTransform="matrix(.00000026 -.117199 -.210958 -.00000015 79.684395 95.392999)" gradientUnits="userSpaceOnUse" r="21.166656" xlink:href="#b"/><radialGradient id="d" cx="450.908936" cy="189.579361" gradientTransform="matrix(-.00000026 .117199 .210958 .00000015 -31.80678 -11.291218)" gradientUnits="userSpaceOnUse" r="21.166656" xlink:href="#b"/><radialGradient id="e" cx="450.908936" cy="189.579361" gradientTransform="matrix(-.00000026 -.117199 .210958 -.00000015 -31.80678 95.392999)" gradientUnits="userSpaceOnUse" r="21.166656" xlink:href="#b"/><radialGradient id="f" cx="450.908936" cy="189.579361" gradientTransform="matrix(.00000026 .117199 -.210958 .00000015 79.684393 -11.291219)" gradientUnits="userSpaceOnUse" r="21.166656" xlink:href="#b"/><linearGradient id="g"><stop offset="0" stop-color="#bcaaa4"/><stop offset="1" stop-color="#a1887f"/></linearGradient><linearGradient id="h" gradientUnits="userSpaceOnUse" x1="23.814786" x2="23.814786" xlink:href="#g" y1="4.3441580001" y2="42.0509015"/><linearGradient id="i"><stop offset="0" stop-color="#a1887f"/><stop offset="1" stop-color="#8d6e63"/></linearGradient><linearGradient id="j" gradientUnits="userSpaceOnUse" x1="116.416664" x2="116.416664" xlink:href="#i" y1="-168.666667" y2="233.500005"/><linearGradient id="k" gradientUnits="userSpaceOnUse" x1="349.25" x2="349.25" xlink:href="#i" y1="-168.666667" y2="233.500005"/><linearGradient id="l"><stop offset="0" stop-color="#bdbdbd"/><stop offset="1" stop-color="#e0e0e0"/></linearGradient><linearGradient id="m" gradientUnits="userSpaceOnUse" x1="137.582993" x2="137.582993" xlink:href="#l" y1="80.04130918561" y2="-36.37522695395"/><linearGradient id="n" gradientUnits="userSpaceOnUse" x1="142.874971" x2="142.874971" xlink:href="#l" y1="106.500004" y2="43.000002"/><linearGradient id="o" gradientUnits="userSpaceOnUse" x1="137.58333" x2="137.58333" xlink:href="#g" y1="-168.66666" y2="233.499996"/><linearGradient id="p" gradientUnits="userSpaceOnUse" x1="370.416329" x2="370.416329" xlink:href="#l" y1="80.04130918561" y2="-36.37522695395"/><linearGradient id="q" gradientUnits="userSpaceOnUse" x1="375.708313" x2="375.708313" xlink:href="#l" y1="106.500004" y2="43.000002"/><linearGradient id="r" gradientUnits="userSpaceOnUse" x1="370.416672" x2="370.416672" xlink:href="#g" y1="-168.66666" y2="233.499996"/><path d="m5.953125 42.050781c-1.097656 0-1.984375-.886719-1.984375-1.984375v-.25c0 1.101563.886719 1.988282 1.984375 1.988282h35.722656c1.097657 0 1.984375-.886719 1.984375-1.988282v.25c0 1.097656-.886718 1.984375-1.984375 1.984375zm0 0" fill-opacity=".196078"/><path d="m7.691406 42.050781h32.496094v1.984375h-32.496094zm0 0" fill="url(#a)"/><path d="m40.1875 42.050781h3.96875v-1.984375h-3.96875zm0 0" fill="url(#c)"/><path d="m7.691406 42.050781h-3.96875v1.984375h3.96875zm0 0" fill="url(#d)"/><path d="m7.691406 42.050781h-3.96875v-1.984375h3.96875zm0 0" fill="url(#e)"/><path d="m40.1875 42.050781h3.96875v1.984375h-3.96875zm0 0" fill="url(#f)"/><path d="m5.457031 4.34375h36.714844c.820313 0 1.488281.667969 1.488281 1.488281v34.730469c0 .820312-.667968 1.488281-1.488281 1.488281h-36.714844c-.820312 0-1.488281-.667969-1.488281-1.488281v-34.730469c0-.820312.667969-1.488281 1.488281-1.488281zm0 0" fill="url(#h)"/><path d="m5.457031 4.34375c-.824219 0-1.488281.664062-1.488281 1.488281v.496094c0-.824219.664062-1.488281 1.488281-1.488281h36.714844c.824219 0 1.488281.664062 1.488281 1.488281v-.496094c0-.824219-.664062-1.488281-1.488281-1.488281zm0 0" fill="#fff" fill-opacity=".392157"/><path d="m5.457031 42.050781c-.824219 0-1.488281-.664062-1.488281-1.488281v-.496094c0 .824219.664062 1.488282 1.488281 1.488282h36.714844c.824219 0 1.488281-.664063 1.488281-1.488282v.496094c0 .824219-.664062 1.488281-1.488281 1.488281zm0 0" fill="#050505" fill-opacity=".235294"/><path d="m5.457031 4.203125c-.898437 0-1.628906.730469-1.628906 1.628906v34.730469c0 .898438.730469 1.628906 1.628906 1.628906h36.714844c.898437 0 1.628906-.730468 1.628906-1.628906v-34.730469c0-.898437-.730469-1.628906-1.628906-1.628906zm0 .28125h36.714844c.75 0 1.347656.597656 1.347656 1.347656v34.730469c0 .75-.597656 1.347656-1.347656 1.347656h-36.714844c-.75 0-1.347656-.597656-1.347656-1.347656v-34.730469c0-.75.597656-1.347656 1.347656-1.347656zm0 0" fill="#212121"/><path d="m105.823228-62.847863h63.493936c5.874439 0 10.582323 4.749546 10.582323 10.582323v158.776504c0 5.832776-4.707884 10.582323-10.582323 10.582323h-63.493936c-5.832777 0-10.582323-4.749547-10.582323-10.582323v-158.776504c0-5.832777 4.749546-10.582323 10.582323-10.582323zm0 0" fill="url(#j)" stroke="#212121" stroke-linecap="round" stroke-width="3" transform="matrix(.093759 0 0 .093759 0 20.158175)"/><path d="m338.675991-62.847863h63.493937c5.832776 0 10.582323 4.749546 10.582323 10.582323v158.776504c0 5.832776-4.749547 10.582323-10.582323 10.582323h-63.493937c-5.874439 0-10.582322-4.749547-10.582322-10.582323v-158.776504c0-5.832777 4.707883-10.582323 10.582322-10.582323zm0 0" fill="url(#k)" stroke="#212121" stroke-linecap="round" stroke-width="3" transform="matrix(.093759 0 0 .093759 0 20.158175)"/><path d="m3.96875 22.949219h39.691406v.25h-39.691406zm0 0" fill-opacity=".196078"/><path d="m3.96875 23.199219h39.691406v.246093h-39.691406zm0 0" fill="#e6e6e6" fill-opacity=".588235"/><path d="m3.96875 23.074219h39.691406v.246093h-39.691406zm0 0" fill="#212121" fill-opacity=".992157"/><g stroke="#212121" stroke-linecap="round" stroke-width="3"><path d="m116.40555-36.392056c-5.832776 0-10.582322 4.749546-10.582322 10.582323v95.282567c0 5.832777 4.749546 10.582323 10.582322 10.582323h42.329292c5.874439 0 10.582322-4.749546 10.582322-10.582323v-95.282567c0-5.832777-4.707883-10.582323-10.582322-10.582323zm2.666413 7.957573h37.038129c2.916388 0 5.291162 2.374773 5.291162 5.291162v89.949743c0 2.958051-2.374774 5.291162-5.291162 5.291162h-37.038129c-2.958051 0-5.291162-2.333111-5.291162-5.291162v-89.949743c0-2.916389 2.333111-5.291162 5.291162-5.291162zm0 0" fill="url(#m)" stroke-linejoin="round" transform="matrix(.093759 0 0 .093759 0 20.158175)"/><path d="m126.987873 43.017027h21.164646c5.874439 0 10.582323 4.707884 10.582323 10.582323v42.329291c0 5.832776-4.707884 10.582323-10.582323 10.582323h-21.164646c-5.832776 0-10.582323-4.749547-10.582323-10.582323v-42.329291c0-5.874439 4.749547-10.582323 10.582323-10.582323zm0 0" fill="url(#n)" transform="matrix(.093759 0 0 .093759 0 20.158175)"/><path d="m126.987873-52.26554h21.164646c5.874439 0 10.582323 4.749546 10.582323 10.582322v15.873485c0 5.874439-4.707884 10.582322-10.582323 10.582322h-21.164646c-5.832776 0-10.582323-4.707883-10.582323-10.582322v-15.873485c0-5.832776 4.749547-10.582322 10.582323-10.582322zm0 0" fill="url(#o)" transform="matrix(.093759 0 0 .093759 0 20.158175)"/><path d="m349.258314-36.392056c-5.874439 0-10.582323 4.749546-10.582323 10.582323v95.282567c0 5.832777 4.707884 10.582323 10.582323 10.582323h42.329291c5.874439 0 10.582323-4.749546 10.582323-10.582323v-95.282567c0-5.832777-4.707884-10.582323-10.582323-10.582323zm2.62475 7.957573h37.038129c2.958051 0 5.291162 2.374773 5.291162 5.291162v89.949743c0 2.958051-2.333111 5.291162-5.291162 5.291162h-37.038129c-2.916389 0-5.291162-2.333111-5.291162-5.291162v-89.949743c0-2.916389 2.374773-5.291162 5.291162-5.291162zm0 0" fill="url(#p)" stroke-linejoin="round" transform="matrix(.093759 0 0 .093759 0 20.158175)"/><path d="m359.840637 43.017027h21.164645c5.832777 0 10.582323 4.707884 10.582323 10.582323v42.329291c0 5.832776-4.749546 10.582323-10.582323 10.582323h-21.164645c-5.832776 0-10.582323-4.749547-10.582323-10.582323v-42.329291c0-5.874439 4.749547-10.582323 10.582323-10.582323zm0 0" fill="url(#q)" transform="matrix(.093759 0 0 .093759 0 20.158175)"/><path d="m359.840637-52.26554h21.164645c5.832777 0 10.582323 4.749546 10.582323 10.582322v15.873485c0 5.874439-4.749546 10.582322-10.582323 10.582322h-21.164645c-5.832776 0-10.582323-4.707883-10.582323-10.582322v-15.873485c0-5.832776 4.749547-10.582322 10.582323-10.582322zm0 0" fill="url(#r)" transform="matrix(.093759 0 0 .093759 0 20.158175)"/></g></svg>

<?xml version="1.0" encoding="UTF-8"?>
<svg xmlns="http://www.w3.org/2000/svg" xmlns:xlink="http://www.w3.org/1999/xlink" width="48px" height="48px" viewBox="0 0 48 48" version="1.1">
<defs>
<linearGradient id="linear0" gradientUnits="userSpaceOnUse" x1="254" y1="233.5" x2="254" y2="254.666672" gradientTransform="matrix(0.093759,0,0,0.093759,-0.00000572259,20.158178)">
<stop offset="0" style="stop-color:rgb(0%,0%,0%);stop-opacity:0.27451;"/>
<stop offset="1" style="stop-color:rgb(0%,0%,0%);stop-opacity:0;"/>
</linearGradient>
<radialGradient id="radial0" gradientUnits="userSpaceOnUse" cx="450.908936" cy="189.579361" fx="450.908936" fy="189.579361" r="21.166656" gradientTransform="matrix(0.000000261256,-0.117199,-0.210958,-0.000000152308,79.684395,95.392999)">
<stop offset="0" style="stop-color:rgb(0%,0%,0%);stop-opacity:0.313726;"/>
<stop offset="0.222222" style="stop-color:rgb(0%,0%,0%);stop-opacity:0.27451;"/>
<stop offset="1" style="stop-color:rgb(0%,0%,0%);stop-opacity:0;"/>
</radialGradient>
<radialGradient id="radial1" gradientUnits="userSpaceOnUse" cx="450.908936" cy="189.579361" fx="450.908936" fy="189.579361" r="21.166656" gradientTransform="matrix(-0.000000261256,0.117199,0.210958,0.000000152308,-31.80678,-11.291218)">
<stop offset="0" style="stop-color:rgb(0%,0%,0%);stop-opacity:0.313726;"/>
<stop offset="0.222222" style="stop-color:rgb(0%,0%,0%);stop-opacity:0.27451;"/>
<stop offset="1" style="stop-color:rgb(0%,0%,0%);stop-opacity:0;"/>
</radialGradient>
<radialGradient id="radial2" gradientUnits="userSpaceOnUse" cx="450.908936" cy="189.579361" fx="450.908936" fy="189.579361" r="21.166656" gradientTransform="matrix(-0.000000261256,-0.117199,0.210958,-0.000000152308,-31.80678,95.392999)">
<stop offset="0" style="stop-color:rgb(0%,0%,0%);stop-opacity:0.313726;"/>
<stop offset="0.222222" style="stop-color:rgb(0%,0%,0%);stop-opacity:0.27451;"/>
<stop offset="1" style="stop-color:rgb(0%,0%,0%);stop-opacity:0;"/>
</radialGradient>
<radialGradient id="radial3" gradientUnits="userSpaceOnUse" cx="450.908936" cy="189.579361" fx="450.908936" fy="189.579361" r="21.166656" gradientTransform="matrix(0.000000261256,0.117199,-0.210958,0.000000152308,79.684393,-11.291219)">
<stop offset="0" style="stop-color:rgb(0%,0%,0%);stop-opacity:0.313726;"/>
<stop offset="0.222222" style="stop-color:rgb(0%,0%,0%);stop-opacity:0.27451;"/>
<stop offset="1" style="stop-color:rgb(0%,0%,0%);stop-opacity:0;"/>
</radialGradient>
<linearGradient id="linear1" gradientUnits="userSpaceOnUse" x1="254" y1="-168.666656" x2="254" y2="233.5" gradientTransform="matrix(0.093759,0,0,0.093759,0,20.158175)">
<stop offset="0" style="stop-color:rgb(73.725492%,66.666669%,64.313728%);stop-opacity:1;"/>
<stop offset="1" style="stop-color:rgb(63.137257%,53.333336%,49.803922%);stop-opacity:1;"/>
</linearGradient>
<linearGradient id="linear2" gradientUnits="userSpaceOnUse" x1="148.166687" y1="-168.666809" x2="148.166687" y2="233.499863" gradientTransform="matrix(1,0,0,1,-31.750023,0.000142415)">
<stop offset="0" style="stop-color:rgb(63.137257%,53.333336%,49.803922%);stop-opacity:1;"/>
<stop offset="1" style="stop-color:rgb(55.29412%,43.137255%,38.82353%);stop-opacity:1;"/>
</linearGradient>
<linearGradient id="linear3" gradientUnits="userSpaceOnUse" x1="148.166687" y1="-168.666809" x2="148.166687" y2="233.499863" gradientTransform="matrix(1,0,0,1,201.083313,0.000142415)">
<stop offset="0" style="stop-color:rgb(63.137257%,53.333336%,49.803922%);stop-opacity:1;"/>
<stop offset="1" style="stop-color:rgb(55.29412%,43.137255%,38.82353%);stop-opacity:1;"/>
</linearGradient>
<linearGradient id="linear4" gradientUnits="userSpaceOnUse" x1="960" y1="1115.118164" x2="960" y2="675.118103" gradientTransform="matrix(0.264583,0,0,0.264583,-116.416687,-215)">
<stop offset="0" style="stop-color:rgb(74.117649%,74.117649%,74.117649%);stop-opacity:1;"/>
<stop offset="1" style="stop-color:rgb(87.843138%,87.843138%,87.843138%);stop-opacity:1;"/>
</linearGradient>
<linearGradient id="linear5" gradientUnits="userSpaceOnUse" x1="164.041641" y1="64.166664" x2="164.041641" y2="0.666662" gradientTransform="matrix(1,0,0,1,-21.16667,42.33334)">
<stop offset="0" style="stop-color:rgb(74.117649%,74.117649%,74.117649%);stop-opacity:1;"/>
<stop offset="1" style="stop-color:rgb(87.843138%,87.843138%,87.843138%);stop-opacity:1;"/>
</linearGradient>
<linearGradient id="linear6" gradientUnits="userSpaceOnUse" x1="158.75" y1="-115.75" x2="158.75" y2="286.416656" gradientTransform="matrix(1,0,0,1,-21.16667,-52.91666)">
<stop offset="0" style="stop-color:rgb(73.725492%,66.666669%,64.313728%);stop-opacity:1;"/>
<stop offset="1" style="stop-color:rgb(63.137257%,53.333336%,49.803922%);stop-opacity:1;"/>
</linearGradient>
<linearGradient id="linear7" gradientUnits="userSpaceOnUse" x1="960" y1="1115.118164" x2="960" y2="675.118103" gradientTransform="matrix(0.264583,0,0,0.264583,116.416649,-215)">
<stop offset="0" style="stop-color:rgb(74.117649%,74.117649%,74.117649%);stop-opacity:1;"/>
<stop offset="1" style="stop-color:rgb(87.843138%,87.843138%,87.843138%);stop-opacity:1;"/>
</linearGradient>
<linearGradient id="linear8" gradientUnits="userSpaceOnUse" x1="164.041641" y1="64.166664" x2="164.041641" y2="0.666662" gradientTransform="matrix(1,0,0,1,211.666672,42.33334)">
<stop offset="0" style="stop-color:rgb(74.117649%,74.117649%,74.117649%);stop-opacity:1;"/>
<stop offset="1" style="stop-color:rgb(87.843138%,87.843138%,87.843138%);stop-opacity:1;"/>
</linearGradient>
<linearGradient id="linear9" gradientUnits="userSpaceOnUse" x1="158.75" y1="-115.75" x2="158.75" y2="286.416656" gradientTransform="matrix(1,0,0,1,211.666672,-52.91666)">
<stop offset="0" style="stop-color:rgb(73.725492%,66.666669%,64.313728%);stop-opacity:1;"/>
<stop offset="1" style="stop-color:rgb(63.137257%,53.333336%,49.803922%);stop-opacity:1;"/>
</linearGradient>
</defs>
<g id="surface1">
<path style=" stroke:none;fill-rule:nonzero;fill:rgb(0%,0%,0%);fill-opacity:0.196078;" d="M 5.953125 42.050781 C 4.855469 42.050781 3.96875 41.164062 3.96875 40.066406 L 3.96875 39.816406 C 3.96875 40.917969 4.855469 41.804688 5.953125 41.804688 L 41.675781 41.804688 C 42.773438 41.804688 43.660156 40.917969 43.660156 39.816406 L 43.660156 40.066406 C 43.660156 41.164062 42.773438 42.050781 41.675781 42.050781 Z M 5.953125 42.050781 "/>
<path style=" stroke:none;fill-rule:nonzero;fill:url(#linear0);" d="M 7.691406 42.050781 L 40.1875 42.050781 L 40.1875 44.035156 L 7.691406 44.035156 Z M 7.691406 42.050781 "/>
<path style=" stroke:none;fill-rule:nonzero;fill:url(#radial0);" d="M 40.1875 42.050781 L 44.15625 42.050781 L 44.15625 40.066406 L 40.1875 40.066406 Z M 40.1875 42.050781 "/>
<path style=" stroke:none;fill-rule:nonzero;fill:url(#radial1);" d="M 7.691406 42.050781 L 3.722656 42.050781 L 3.722656 44.035156 L 7.691406 44.035156 Z M 7.691406 42.050781 "/>
<path style=" stroke:none;fill-rule:nonzero;fill:url(#radial2);" d="M 7.691406 42.050781 L 3.722656 42.050781 L 3.722656 40.066406 L 7.691406 40.066406 Z M 7.691406 42.050781 "/>
<path style=" stroke:none;fill-rule:nonzero;fill:url(#radial3);" d="M 40.1875 42.050781 L 44.15625 42.050781 L 44.15625 44.035156 L 40.1875 44.035156 Z M 40.1875 42.050781 "/>
<path style=" stroke:none;fill-rule:nonzero;fill:url(#linear1);" d="M 5.457031 4.34375 L 42.171875 4.34375 C 42.992188 4.34375 43.660156 5.011719 43.660156 5.832031 L 43.660156 40.5625 C 43.660156 41.382812 42.992188 42.050781 42.171875 42.050781 L 5.457031 42.050781 C 4.636719 42.050781 3.96875 41.382812 3.96875 40.5625 L 3.96875 5.832031 C 3.96875 5.011719 4.636719 4.34375 5.457031 4.34375 Z M 5.457031 4.34375 "/>
<path style=" stroke:none;fill-rule:nonzero;fill:rgb(100%,100%,100%);fill-opacity:0.392157;" d="M 5.457031 4.34375 C 4.632812 4.34375 3.96875 5.007812 3.96875 5.832031 L 3.96875 6.328125 C 3.96875 5.503906 4.632812 4.839844 5.457031 4.839844 L 42.171875 4.839844 C 42.996094 4.839844 43.660156 5.503906 43.660156 6.328125 L 43.660156 5.832031 C 43.660156 5.007812 42.996094 4.34375 42.171875 4.34375 Z M 5.457031 4.34375 "/>
<path style=" stroke:none;fill-rule:nonzero;fill:rgb(1.960784%,1.960784%,1.960784%);fill-opacity:0.235294;" d="M 5.457031 42.050781 C 4.632812 42.050781 3.96875 41.386719 3.96875 40.5625 L 3.96875 40.066406 C 3.96875 40.890625 4.632812 41.554688 5.457031 41.554688 L 42.171875 41.554688 C 42.996094 41.554688 43.660156 40.890625 43.660156 40.066406 L 43.660156 40.5625 C 43.660156 41.386719 42.996094 42.050781 42.171875 42.050781 Z M 5.457031 42.050781 "/>
<path style=" stroke:none;fill-rule:nonzero;fill:rgb(12.941177%,12.941177%,12.941177%);fill-opacity:1;" d="M 5.457031 4.203125 C 4.558594 4.203125 3.828125 4.933594 3.828125 5.832031 L 3.828125 40.5625 C 3.828125 41.460938 4.558594 42.191406 5.457031 42.191406 L 42.171875 42.191406 C 43.070312 42.191406 43.800781 41.460938 43.800781 40.5625 L 43.800781 5.832031 C 43.800781 4.933594 43.070312 4.203125 42.171875 4.203125 Z M 5.457031 4.484375 L 42.171875 4.484375 C 42.921875 4.484375 43.519531 5.082031 43.519531 5.832031 L 43.519531 40.5625 C 43.519531 41.3125 42.921875 41.910156 42.171875 41.910156 L 5.457031 41.910156 C 4.707031 41.910156 4.109375 41.3125 4.109375 40.5625 L 4.109375 5.832031 C 4.109375 5.082031 4.707031 4.484375 5.457031 4.484375 Z M 5.457031 4.484375 "/>
<path style="fill-rule:nonzero;fill:url(#linear2);stroke-width:3;stroke-linecap:round;stroke-linejoin:miter;stroke:rgb(12.941177%,12.941177%,12.941177%);stroke-opacity:1;stroke-miterlimit:4;" d="M 105.823228 -62.847863 L 169.317164 -62.847863 C 175.191603 -62.847863 179.899487 -58.098317 179.899487 -52.26554 L 179.899487 106.510964 C 179.899487 112.34374 175.191603 117.093287 169.317164 117.093287 L 105.823228 117.093287 C 99.990451 117.093287 95.240905 112.34374 95.240905 106.510964 L 95.240905 -52.26554 C 95.240905 -58.098317 99.990451 -62.847863 105.823228 -62.847863 Z M 105.823228 -62.847863 " transform="matrix(0.093759,0,0,0.093759,0,20.158175)"/>
<path style="fill-rule:nonzero;fill:url(#linear3);stroke-width:3;stroke-linecap:round;stroke-linejoin:miter;stroke:rgb(12.941177%,12.941177%,12.941177%);stroke-opacity:1;stroke-miterlimit:4;" d="M 338.675991 -62.847863 L 402.169928 -62.847863 C 408.002704 -62.847863 412.752251 -58.098317 412.752251 -52.26554 L 412.752251 106.510964 C 412.752251 112.34374 408.002704 117.093287 402.169928 117.093287 L 338.675991 117.093287 C 332.801552 117.093287 328.093669 112.34374 328.093669 106.510964 L 328.093669 -52.26554 C 328.093669 -58.098317 332.801552 -62.847863 338.675991 -62.847863 Z M 338.675991 -62.847863 " transform="matrix(0.093759,0,0,0.093759,0,20.158175)"/>
<path style=" stroke:none;fill-rule:nonzero;fill:rgb(0%,0%,0%);fill-opacity:0.196078;" d="M 3.96875 22.949219 L 43.660156 22.949219 L 43.660156 23.199219 L 3.96875 23.199219 Z M 3.96875 22.949219 "/>
<path style=" stroke:none;fill-rule:nonzero;fill:rgb(90.196079%,90.196079%,90.196079%);fill-opacity:0.588235;" d="M 3.96875 23.199219 L 43.660156 23.199219 L 43.660156 23.445312 L 3.96875 23.445312 Z M 3.96875 23.199219 "/>
<path style=" stroke:none;fill-rule:nonzero;fill:rgb(12.941177%,12.941177%,12.941177%);fill-opacity:0.992157;" d="M 3.96875 23.074219 L 43.660156 23.074219 L 43.660156 23.320312 L 3.96875 23.320312 Z M 3.96875 23.074219 "/>
<path style="fill-rule:nonzero;fill:url(#linear4);stroke-width:3;stroke-linecap:round;stroke-linejoin:round;stroke:rgb(12.941177%,12.941177%,12.941177%);stroke-opacity:1;stroke-miterlimit:4;" d="M 116.40555 -36.392056 C 110.572774 -36.392056 105.823228 -31.64251 105.823228 -25.809733 L 105.823228 69.472834 C 105.823228 75.305611 110.572774 80.055157 116.40555 80.055157 L 158.734842 80.055157 C 164.609281 80.055157 169.317164 75.305611 169.317164 69.472834 L 169.317164 -25.809733 C 169.317164 -31.64251 164.609281 -36.392056 158.734842 -36.392056 Z M 119.071963 -28.434483 L 156.110092 -28.434483 C 159.02648 -28.434483 161.401254 -26.05971 161.401254 -23.143321 L 161.401254 66.806422 C 161.401254 69.764473 159.02648 72.097584 156.110092 72.097584 L 119.071963 72.097584 C 116.113912 72.097584 113.780801 69.764473 113.780801 66.806422 L 113.780801 -23.143321 C 113.780801 -26.05971 116.113912 -28.434483 119.071963 -28.434483 Z M 119.071963 -28.434483 " transform="matrix(0.093759,0,0,0.093759,0,20.158175)"/>
<path style="fill-rule:nonzero;fill:url(#linear5);stroke-width:3;stroke-linecap:round;stroke-linejoin:miter;stroke:rgb(12.941177%,12.941177%,12.941177%);stroke-opacity:1;stroke-miterlimit:4;" d="M 126.987873 43.017027 L 148.152519 43.017027 C 154.026958 43.017027 158.734842 47.724911 158.734842 53.59935 L 158.734842 95.928641 C 158.734842 101.761417 154.026958 106.510964 148.152519 106.510964 L 126.987873 106.510964 C 121.155097 106.510964 116.40555 101.761417 116.40555 95.928641 L 116.40555 53.59935 C 116.40555 47.724911 121.155097 43.017027 126.987873 43.017027 Z M 126.987873 43.017027 " transform="matrix(0.093759,0,0,0.093759,0,20.158175)"/>
<path style="fill-rule:nonzero;fill:url(#linear6);stroke-width:3;stroke-linecap:round;stroke-linejoin:miter;stroke:rgb(12.941177%,12.941177%,12.941177%);stroke-opacity:1;stroke-miterlimit:4;" d="M 126.987873 -52.26554 L 148.152519 -52.26554 C 154.026958 -52.26554 158.734842 -47.515994 158.734842 -41.683218 L 158.734842 -25.809733 C 158.734842 -19.935294 154.026958 -15.227411 148.152519 -15.227411 L 126.987873 -15.227411 C 121.155097 -15.227411 116.40555 -19.935294 116.40555 -25.809733 L 116.40555 -41.683218 C 116.40555 -47.515994 121.155097 -52.26554 126.987873 -52.26554 Z M 126.987873 -52.26554 " transform="matrix(0.093759,0,0,0.093759,0,20.158175)"/>
<path style="fill-rule:nonzero;fill:url(#linear7);stroke-width:3;stroke-linecap:round;stroke-linejoin:round;stroke:rgb(12.941177%,12.941177%,12.941177%);stroke-opacity:1;stroke-miterlimit:4;" d="M 349.258314 -36.392056 C 343.383875 -36.392056 338.675991 -31.64251 338.675991 -25.809733 L 338.675991 69.472834 C 338.675991 75.305611 343.383875 80.055157 349.258314 80.055157 L 391.587605 80.055157 C 397.462044 80.055157 402.169928 75.305611 402.169928 69.472834 L 402.169928 -25.809733 C 402.169928 -31.64251 397.462044 -36.392056 391.587605 -36.392056 Z M 351.883064 -28.434483 L 388.921193 -28.434483 C 391.879244 -28.434483 394.212355 -26.05971 394.212355 -23.143321 L 394.212355 66.806422 C 394.212355 69.764473 391.879244 72.097584 388.921193 72.097584 L 351.883064 72.097584 C 348.966675 72.097584 346.591902 69.764473 346.591902 66.806422 L 346.591902 -23.143321 C 346.591902 -26.05971 348.966675 -28.434483 351.883064 -28.434483 Z M 351.883064 -28.434483 " transform="matrix(0.093759,0,0,0.093759,0,20.158175)"/>
<path style="fill-rule:nonzero;fill:url(#linear8);stroke-width:3;stroke-linecap:round;stroke-linejoin:miter;stroke:rgb(12.941177%,12.941177%,12.941177%);stroke-opacity:1;stroke-miterlimit:4;" d="M 359.840637 43.017027 L 381.005282 43.017027 C 386.838059 43.017027 391.587605 47.724911 391.587605 53.59935 L 391.587605 95.928641 C 391.587605 101.761417 386.838059 106.510964 381.005282 106.510964 L 359.840637 106.510964 C 354.007861 106.510964 349.258314 101.761417 349.258314 95.928641 L 349.258314 53.59935 C 349.258314 47.724911 354.007861 43.017027 359.840637 43.017027 Z M 359.840637 43.017027 " transform="matrix(0.093759,0,0,0.093759,0,20.158175)"/>
<path style="fill-rule:nonzero;fill:url(#linear9);stroke-width:3;stroke-linecap:round;stroke-linejoin:miter;stroke:rgb(12.941177%,12.941177%,12.941177%);stroke-opacity:1;stroke-miterlimit:4;" d="M 359.840637 -52.26554 L 381.005282 -52.26554 C 386.838059 -52.26554 391.587605 -47.515994 391.587605 -41.683218 L 391.587605 -25.809733 C 391.587605 -19.935294 386.838059 -15.227411 381.005282 -15.227411 L 359.840637 -15.227411 C 354.007861 -15.227411 349.258314 -19.935294 349.258314 -25.809733 L 349.258314 -41.683218 C 349.258314 -47.515994 354.007861 -52.26554 359.840637 -52.26554 Z M 359.840637 -52.26554 " transform="matrix(0.093759,0,0,0.093759,0,20.158175)"/>
</g>
</svg>
